svgs/solid/pig.svg

<svg xmlns="http://www.w3.org/2000/svg" viewBox="0 0 640 512"><!--! Font Awesome Pro 6.1.2 by @fontawesome - https://fontawesome.com License - https://fontawesome.com/license (Commercial License) Copyright 2022 Fonticons, Inc. --><path d="M513.5 32C521.5 32 528 38.48 528 46.47V78.03C528 97.78 518.1 115.8 504.4 127.7C510.8 132.6 517 137.8 522.1 143.4C540.5 127.5 551.4 104.8 551.1 80H592C600.8 80 608 87.16 608 96V112C608 144.8 583.4 171.8 551.7 175.5L558.4 184.6C569.1 199.1 584.1 212.5 602.2 221.1L608 224H616C629.3 224 640 234.7 640 248V344C640 357.3 629.3 368 616 368H572.5C550.3 389.2 522.8 404.2 492.8 411.3L479.8 456.8C475.8 470.5 463.3 480 449 480H416C398.3 480 384 465.7 384 448V416H272V448C272 465.7 257.7 480 240 480H206.1C192.7 480 180.2 470.5 176.2 456.8L154.1 382.4C110.3 357.1 80 310.5 80 256V240H47.45C21.24 240 0 218.8 0 192.6C0 170.8 14.82 151.8 35.94 146.5L44.12 144.5C52.69 142.3 61.38 147.5 63.52 156.1C65.67 164.7 60.45 173.4 51.88 175.5L43.7 177.6C36.82 179.3 32 185.5 32 192.6C32 201.1 38.92 208 47.45 208H83.2C98.03 134.1 162.6 80 240 80H362.4C376.8 80 391.1 81.33 405.1 83.91C413.2 64.44 430.5 49.47 452.1 44.83L510.5 32.32C511.5 32.11 512.5 32 513.5 32L513.5 32zM468 256C479 256 488 247 488 236C488 224.1 479 216 468 216C456.1 216 448 224.1 448 236C448 247 456.1 256 468 256z"/></svg>

<svg xmlns="http://www.w3.org/2000/svg" viewBox="0 0 640 512"><!--! Font Awesome Pro 6.2.0 by @fontawesome - https://fontawesome.com License - https://fontawesome.com/license (Commercial License) Copyright 2022 Fonticons, Inc. --><path d="M513.5 32c8 0 14.5 6.5 14.5 14.5V78c0 19.7-9 37.8-23.6 49.7c6.4 4.9 12.7 10.1 18.6 15.7c17.6-15.9 28.5-38.6 29-63.3h40c8.8 0 16 7.2 16 16v16c0 32.8-24.6 59.8-56.3 63.5l6.8 9C570 200 585 212.5 602.2 221.1L608 224h8c13.3 0 24 10.7 24 24v96c0 13.3-10.7 24-24 24H572.5c-22.2 21.2-49.7 36.2-79.8 43.3l-13 45.5C475.8 470.5 463.3 480 449 480H416c-17.7 0-32-14.3-32-32V416H320 272v32c0 17.7-14.3 32-32 32H207c-14.3 0-26.8-9.5-30.8-23.2L155 382.4C110.3 358 80 310.5 80 256V240H47.4C21.2 240 0 218.8 0 192.6c0-21.8 14.8-40.7 35.9-46l8.2-2c8.6-2.1 17.3 3.1 19.4 11.6s-3.1 17.3-11.6 19.4l-8.2 2c-6.9 1.7-11.7 7.9-11.7 15c0 8.5 6.9 15.4 15.4 15.4H83.2C98 135 162.6 80 240 80H362.4c14.5 0 28.8 1.3 42.7 3.9c8.1-19.5 25.4-34.4 47-39.1l58.4-12.5c1-.2 2-.3 3-.3zM468 256c11 0 20-9 20-20s-9-20-20-20s-20 9-20 20s9 20 20 20z"/></svg>
